storage/app/icons/phosphoricons/bold/city-bold.svg

<svg xmlns="http://www.w3.org/2000/svg" fill="currentColor" viewBox="0 0 256 256"><path d="M240 204h-4V88a12 12 0 0 0-12-12h-72a12 12 0 0 0-12 12v36h-24V40a12 12 0 0 0-12-12H32a12 12 0 0 0-12 12v164h-4a12 12 0 0 0 0 24h224a12 12 0 0 0 0-24m-76-104h48v104h-48Zm-24 48v56h-24v-56ZM44 52h48v152H44Zm36 24v8a12 12 0 0 1-24 0v-8a12 12 0 0 1 24 0m0 48v8a12 12 0 0 1-24 0v-8a12 12 0 0 1 24 0m0 48v8a12 12 0 0 1-24 0v-8a12 12 0 0 1 24 0m96 8v-8a12 12 0 0 1 24 0v8a12 12 0 0 1-24 0m0-48v-8a12 12 0 0 1 24 0v8a12 12 0 0 1-24 0"/></svg>

<svg xmlns="http://www.w3.org/2000/svg" viewBox="0 0 256 256" fill="currentColor"><path d="M240,204h-4V88a12,12,0,0,0-12-12H152a12,12,0,0,0-12,12v36H116V40a12,12,0,0,0-12-12H32A12,12,0,0,0,20,40V204H16a12,12,0,0,0,0,24H240a12,12,0,0,0,0-24ZM164,100h48V204H164Zm-24,48v56H116V148ZM44,52H92V204H44ZM80,76v8a12,12,0,0,1-24,0V76a12,12,0,0,1,24,0Zm0,48v8a12,12,0,0,1-24,0v-8a12,12,0,0,1,24,0Zm0,48v8a12,12,0,0,1-24,0v-8a12,12,0,0,1,24,0Zm96,8v-8a12,12,0,0,1,24,0v8a12,12,0,0,1-24,0Zm0-48v-8a12,12,0,0,1,24,0v8a12,12,0,0,1-24,0Z"/></svg>
